X: 3715
T:Rose in the Heather, The
R:double jig
M:6/8
L:1/8
K:D
E|(3FGF F EFE|DFA BAF|ABd ede|fdB AFE|!
~F3 EFE|DFA BAF|AdB AFE|FDD D2:|!
e|fdB ABd|faa afd|gag fed|Bee efg|!
fdB ABd|faa afa|baf ede|fdd d2:|!
